X:463
T:Reel 463
M:4/4
K:Cmaj
L:1/8
C>D (3EDC D2C2|C>A, (3A,G,A, G,2E2|E>F (3EDE E2E2|D>C (3CB,C G,2C2:|EGG (3ABc G2E2|E>F (3EFG A2c2|E>G (3GGG c2G2|A>c (3Bcd c>A (3BcG |E>F (3GGG A>G (3EFG |AGAB cBc2|C>A, (3B,CD E>C (3EDC |A>G (3ABc A>c (3cBc | (3ABA GE D2E2|
